src/assets/icons/Social/Pinterest.svg

<?xml version="1.0" encoding="UTF-8"?>
<svg width="24px" height="24px" viewBox="0 0 24 24" version="1.1" xmlns="http://www.w3.org/2000/svg" xmlns:xlink="http://www.w3.org/1999/xlink">
    <!-- Generator: Sketch 61 (89581) - https://sketch.com -->
    <title>🎨 Color</title>
    <desc>Created with Sketch.</desc>
    <g id="💟-Symbols" stroke="none" stroke-width="1" fill="none" fill-rule="evenodd">
        <g id="09-Icons-/-Social-/-Pinterest" fill="#000000">
            <path d="M12,0 C5.37283951,0 0,5.35081967 0,11.9508197 C0,17.0163934 3.16049383,21.3442623 7.62469136,23.0852459 C7.51604938,22.1409836 7.42716049,20.6852459 7.66419753,19.652459 C7.88148148,18.7180328 9.06666667,13.7114754 9.06666667,13.7114754 C9.06666667,13.7114754 8.71111111,12.9934426 8.71111111,11.9409836 C8.71111111,10.2786885 9.67901235,9.03934426 10.8839506,9.03934426 C11.9111111,9.03934426 12.4049383,9.80655738 12.4049383,10.7213115 C12.4049383,11.7442623 11.7530864,13.2786885 11.4074074,14.704918 C11.1209877,15.895082 12.0098765,16.8688525 13.1851852,16.8688525 C15.3185185,16.8688525 16.9580247,14.6262295 16.9580247,11.4 C16.9580247,8.53770492 14.8938272,6.54098361 11.9407407,6.54098361 C8.52345679,6.54098361 6.51851852,9.08852459 6.51851852,11.7245902 C6.51851852,12.747541 6.91358025,13.8491803 7.40740741,14.4491803 C7.50617284,14.5672131 7.51604938,14.6754098 7.48641975,14.7934426 C7.39753086,15.1672131 7.19012346,15.9836066 7.15061728,16.1508197 C7.10123457,16.3672131 6.97283951,16.4163934 6.74567901,16.3081967 C5.24444444,15.6098361 4.30617284,13.4360656 4.30617284,11.6754098 C4.30617284,7.90819672 7.05185185,4.44590164 12.237037,4.44590164 C16.3950617,4.44590164 19.6345679,7.39672131 19.6345679,11.3508197 C19.6345679,15.4721311 17.0271605,18.7868852 13.4123457,18.7868852 C12.1975309,18.7868852 11.0518519,18.157377 10.6666667,17.4098361 C10.6666667,17.4098361 10.0641975,19.6918033 9.91604938,20.252459 C9.64938272,21.295082 8.91851852,22.5934426 8.42469136,23.3901639 C9.55061728,23.7344262 10.7358025,23.9213115 11.9802469,23.9213115 C18.6074074,23.9213115 23.9803012,18.5704918 23.9803012,11.9704918 C24,5.35081967 18.6271605,0 12,0 Z" id="🎨-Color"></path>
        </g>
    </g>
</svg>

<svg width="24" height="24" viewBox="0 0 24 24" xmlns="http://www.w3.org/2000/svg"><path d="M12 0C5.373 0 0 5.35 0 11.95c0 5.066 3.16 9.394 7.625 11.135-.109-.944-.198-2.4.04-3.433.216-.934 1.402-5.94 1.402-5.94s-.356-.719-.356-1.771c0-1.662.968-2.902 2.173-2.902 1.027 0 1.52.768 1.52 1.682 0 1.023-.65 2.558-.997 3.984-.286 1.19.603 2.164 1.778 2.164 2.134 0 3.773-2.243 3.773-5.469 0-2.862-2.064-4.859-5.017-4.859-3.418 0-5.422 2.548-5.422 5.184 0 1.023.395 2.124.888 2.724a.355.355 0 01.08.344c-.09.374-.297 1.19-.336 1.358-.05.216-.178.265-.405.157-1.502-.698-2.44-2.872-2.44-4.633 0-3.767 2.746-7.23 7.931-7.23 4.158 0 7.398 2.952 7.398 6.906 0 4.121-2.608 7.436-6.223 7.436-1.214 0-2.36-.63-2.745-1.377l-.751 2.842c-.267 1.043-.997 2.341-1.491 3.138 1.126.344 2.31.531 3.555.531 6.627 0 12-5.35 12-11.95C24 5.35 18.627 0 12 0z" fill="#000" fill-rule="evenodd"/></svg>
